X:1
T:Morgiana, or the Lavender Girl
T:Morgiana in Ireland
M:6/8
L:1/8
R:Jig
B:Elias Howe – Second Part of the Musician’s Companion (1843, p. 58)
Z:AK/Fiddler’s Companion
K:G
D2D G2G|AGA B2z|D2D G2G|B2 c BGE|
D2D G2G|AGA Bcd|edc BcA|G2A BGE||
d2d dcB|e2f g2z|ded dcB|e2f gdB|
d2d dcB|e2e gfe|ded dcB|A2A BGE||
GAG B<dz|ABA c<ez|GAG B<dz|G2A BGE|
GAG B<dz|c<ez B<dz|e>gz B<dz|G2A BGE:|

